**kern	**kern	**dynam
*part1	*part1	*part1
*staff2	*staff1	*
*I"Piano	*	*
*clefF4	*clefG2	*
*k[b-]	*k[b-]	*
=1	=1	=1
*	*^	*
!	!LO:TX:a:i:t=a tempo	!	!
([4.FF) 4.C]	[4.f	4A	mf
.	.	[8F	.
=	=	=	=
!	!	!	!LO:DY:a
((4.FF_) 4.E-X	4.f_	8FL]	>
.	.	8G	.
.	.	8AJ	.
=	=	=	=
(4.FF_) 4.D	4.f_	8B-L	]
.	.	8A	.
.	.	8B-J	.
=	=	=	=
!	!	!	!LO:DY:a
4.FF_ 4.BB-	(8f]	4.d	>
.	4e 4g	.	.
=	=	=	=
4.FF_ 4.AA	4a)	4.c 4.f	.
.	[8cc	.	]
=	=	=	=
4.FF])) 4.GG	(8ccL]	4.e 4.b-	.
.	8dd	.	.
.	8ccJ	.	.
*	*v	*v	*
=	=	=
[4.FFF [4.CC [4.FF	[4.f) [4.a [4.ff	pp
=	=	=
4.FFF_ 4.CC_ 4.FF_	4.f_ 4.a_ 4.ff_	.
=	=	=
8FFF] 8CC] 8FF]	8f] 8a] 8ff]	.
8r	8r	.
8r	8r	.
==	==	==
*-	*-	*-
!!!system-decoration: {(s1,s2)}
